public/avatar/body/126.svg

<svg xmlns:xlink="http://www.w3.org/1999/xlink" height="82" width="84.85" xmlns="http://www.w3.org/2000/svg"><g transform="translate(37.4 42.25)"><use height="38" transform="translate(-11.95 -17.45)" width="32.05" xlink:href="#a"/><use height="38.95" transform="translate(-12.45 -17.95)" width="33.05" xlink:href="#b"/><use height="19.55" transform="translate(-12.75 3.05)" width="33.65" xlink:href="#c"/></g><defs><path d="M27.35 7.4q2.15 4.15 3.55 8.75 1.45 4.7 1.15 9.5-.35 4.95-4.2 8.1-3.8 3.2-8.75 4.05l-2.6.2q-3.6 0-7.05-1.15-4.65-1.6-7.1-5.5Q-.2 27.4.05 23q.2-4.4 2-9.3Q3.85 8.75 7 5.05 10.1 1.3 14.7.1l1.8-.1q1.9.05 3.7.8 4.75 2.05 7.15 6.6" fill="#fff" fill-rule="evenodd" transform="translate(-.05)" id="d"/><path d="M27.35 7.4Q24.95 2.85 20.2.8 17.55-.3 14.7.1 10.1 1.3 7 5.05q-3.15 3.7-4.95 8.65-1.8 4.9-2 9.3-.25 4.4 2.3 8.35 2.45 3.9 7.1 5.5 4.65 1.55 9.65.95 4.95-.85 8.75-4.05 3.85-3.15 4.2-8.1.3-4.8-1.15-9.5-1.4-4.6-3.55-8.75Z" fill="none" stroke="#000" stroke-linecap="round" stroke-linejoin="round" transform="translate(.45 .5)" id="e"/><use height="38" width="32.05" xlink:href="#d" id="a"/><use height="38.95" width="33.05" xlink:href="#e" id="b"/><g id="c"><path d="M1.9 21.95q-8.4 1.75-13.25-1.15 1-5.3-.65-10.7 5.25 3.1 15.85 2.85 10.55-.2 16.7-3.5-1.1 7.4-.3 11-8.75 3.55-13.7 1.1L4.5 20.8l-2.6 1.15" fill="#481d12" fill-rule="evenodd" transform="translate(12.75 -3.05)"/><path d="M1.25 21.25q-8.65.75-11.4-1.1.95-5.35-.85-8.85 4.4 2.55 14.95 2.2 10.4-.35 15.65-3.1-1 6.85-.55 9.45Q12.25 22.3 7.6 21l-3.15-1.5-3.2 1.75" fill="#ea3927" fill-rule="evenodd" transform="translate(12.75 -3.05)"/><path d="M10.35 15.35Q2.9 16.3 1.9 18.8q-.5 1.35 1.95 1.55l-2.9-.3-2.65-.2q-1.75.25 0 1.55-8.15.3-8.5-1.35.35-1.1.15-4.55-.25-3.65-.9-4.25Q-9.3 12.25-5 13l5.1.5 10.6-.6q6.9-1.1 9.2-2.4l-1.1 5.9q-1.1-2-8.45-1.05m-3.05 4.3q2.65 1.75 1.65 1.65l-1.65-.4q-1.8-.3-1.1-.8l1.1-.45" fill="#bc3026" fill-rule="evenodd" transform="translate(12.75 -3.05)"/><path d="m7.05 20.3-2.7.55q-2.3.1-3.4-.75H2.5l3.75-.2q1.5-.2.8.4" fill="#612210" fill-rule="evenodd" transform="translate(12.75 -3.05)"/><path d="M10.55 19.95q-11.9 4.15-22.6-4.9-1.3-5.45-.2-12 8.7 7.4 16.5 6.95 6.55-.35 16.05-6.95 1.2 3.15 0 11-3.8 3.85-9.75 5.9" fill-rule="evenodd" transform="translate(12.75 -3.05)"/><path d="M9.8 19.55q-4.75 2.4-10.8.4-.3-.8-.1-4.45.2-3.7.6-5.3 4.25 1.35 9.5-.45.65 3.5.8 9.8" fill="#00bbfb" fill-rule="evenodd" transform="translate(12.75 -3.05)"/><path d="M-5 17.7q2.6-1.55 4.45-1.9.3-.1.5.55l.1.7-1.9 1.2-2.8.75q-.3-.2-.4-.75l.05-.55" fill="#f04997" fill-rule="evenodd" transform="translate(12.75 -3.05)"/><path d="m7.75 14.65-.05.55q.1.55.4.75l2.8-.75 1.9-1.2-.1-.7q-.2-.65-.5-.55-1.85.35-4.45 1.9Z" fill="none" stroke="#000" stroke-linecap="round" stroke-linejoin="round" stroke-width=".25"/><path d="m8.15 16.8-.1-.6q.1-.55.45-.75 1.05.05 2.8.75 1.75.75 1.9 1.2-.15 1.45-.65 1.25-1.1-.2-4.4-1.85" fill="#f04997" fill-rule="evenodd" transform="translate(12.75 -3.05)"/><path d="m20.9 13.75-.1-.6q.1-.55.45-.75 1.05.05 2.8.75 1.75.75 1.9 1.2-.15 1.45-.65 1.25-1.1-.2-4.4-1.85Z" fill="none" stroke="#000" stroke-linecap="round" stroke-linejoin="round" stroke-width=".25"/><path d="m-1.05 10.75-1.6 2 .75 2.4-2.4-.8-2.15 1.45.1-2.5-2.1-1.5 2.5-.7.85-2.45 1.45 2.1h2.6m18.25 1.6-2.4 1-.55 2.6L12.5 14l-2.6.3 1.35-2.3-1.1-2.4 2.55.6 1.95-1.8.25 2.65 2.3 1.3" fill="#f04997" fill-rule="evenodd" transform="translate(12.75 -3.05)"/><path d="m14.5 8.9.15 2.3 1.85 1.1-3.4-.1 1.4-3.3m-19.55.3 1.1 1.85 2.35.05q-1.15.95-3.15 1.6l-.3-3.5M9.3 15.95l3.5 1.6-.3.8q-1.2-.35-1.9-.8l-1.3-1.6m-12.8 1.4q1.5-.9 2.8-1.2.5.55.5.85l-1.65.9-1.65-.55" fill="#f4abd8" fill-rule="evenodd" transform="translate(12.75 -3.05)"/><path d="m2.5 10.9 2.25-.1Q6.1 20.55 5.8 21.1l-2.45.1q-.2-.05-.85-10.3" fill="#424242" fill-rule="evenodd" transform="translate(12.75 -3.05)"/><path d="m3.15 14.2 1.55-.25.65 6.4-1.55.15-.65-6.3" fill="#cfcfcf" fill-rule="evenodd" transform="translate(12.75 -3.05)"/><path d="M1.95 9.55q.15-.5 1.5-.65 1.3-.1 1.6.3.3.4.6 2.2.25 1.75.1 2.05-.2.3-1.95.55-1.8.3-1.95 0l.1-4.45" fill="#424242" fill-rule="evenodd" transform="translate(12.75 -3.05)"/><path d="M2.4 10q.2-.35 1.15-.5 1-.1 1.2.25l.4 1.65.1 1.55q-2.8.7-2.9.4-.3-1.7.05-3.35" fill="#cfcfcf" fill-rule="evenodd" transform="translate(12.75 -3.05)"/><path d="m4.35 9.9.45-.05q.85 2.85.4 3.15-1.5 1-2.7.4v-.3l2.25-.4q.25-.35-.4-2.8m.15 4.2q0-.45.2-.05l.65 6.3-1.45.15q-.4-.2 0-.2l1.2-.2q.25-.25-.6-6" fill="#fff" fill-rule="evenodd" transform="translate(12.75 -3.05)"/></g></defs></svg>

<?xml version="1.0" encoding="UTF-8" standalone="no"?>
<svg xmlns:xlink="http://www.w3.org/1999/xlink" height="82.0px" width="84.85px" xmlns="http://www.w3.org/2000/svg">
  <g transform="matrix(1.0, 0.0, 0.0, 1.0, 37.4, 42.25)">
    <use height="38.0" transform="matrix(1.0, 0.0, 0.0, 1.0, -11.95, -17.45)" width="32.05" xlink:href="#sprite0"/>
    <use height="38.95" transform="matrix(1.0, 0.0, 0.0, 1.0, -12.45, -17.95)" width="33.05" xlink:href="#sprite1"/>
    <use height="19.55" transform="matrix(1.0, 0.0, 0.0, 1.0, -12.75, 3.05)" width="33.65" xlink:href="#shape2"/>
  </g>
  <defs>
    <g id="sprite0" transform="matrix(1.0, 0.0, 0.0, 1.0, -0.05, 0.0)">
      <use height="38.0" transform="matrix(1.0, 0.0, 0.0, 1.0, 0.05, 0.0)" width="32.05" xlink:href="#shape0"/>
    </g>
    <g id="shape0" transform="matrix(1.0, 0.0, 0.0, 1.0, -0.05, 0.0)">
      <path d="M27.35 7.4 Q29.5 11.55 30.9 16.15 32.35 20.85 32.05 25.65 31.7 30.6 27.85 33.75 24.05 36.95 19.1 37.8 L16.5 38.0 Q12.9 38.0 9.45 36.85 4.8 35.25 2.35 31.35 -0.2 27.4 0.05 23.0 0.25 18.6 2.05 13.7 3.85 8.75 7.0 5.05 10.1 1.3 14.7 0.1 L16.5 0.0 Q18.4 0.05 20.2 0.8 24.95 2.85 27.35 7.4" fill="#ffffff" fill-rule="evenodd" stroke="none"/>
    </g>
    <g id="sprite1" transform="matrix(1.0, 0.0, 0.0, 1.0, 0.45, 0.5)">
      <use height="38.95" transform="matrix(1.0, 0.0, 0.0, 1.0, -0.45, -0.5)" width="33.05" xlink:href="#shape1"/>
    </g>
    <g id="shape1" transform="matrix(1.0, 0.0, 0.0, 1.0, 0.45, 0.5)">
      <path d="M27.35 7.4 Q24.95 2.85 20.2 0.8 17.55 -0.3 14.7 0.1 10.1 1.3 7.0 5.05 3.85 8.75 2.05 13.7 0.25 18.6 0.05 23.0 -0.2 27.4 2.35 31.35 4.8 35.25 9.45 36.85 14.1 38.4 19.1 37.8 24.05 36.95 27.85 33.75 31.7 30.6 32.05 25.65 32.35 20.85 30.9 16.15 29.5 11.55 27.35 7.4 Z" fill="none" stroke="#000000" stroke-linecap="round" stroke-linejoin="round" stroke-width="1.0"/>
    </g>
    <g id="shape2" transform="matrix(1.0, 0.0, 0.0, 1.0, 12.75, -3.05)">
      <path d="M1.9 21.95 Q-6.5 23.7 -11.35 20.8 -10.35 15.5 -12.0 10.1 -6.75 13.2 3.85 12.95 14.4 12.75 20.55 9.45 19.45 16.85 20.25 20.45 11.5 24.0 6.55 21.55 L4.5 20.8 1.9 21.95" fill="#481d12" fill-rule="evenodd" stroke="none"/>
      <path d="M1.25 21.25 Q-7.4 22.0 -10.15 20.15 -9.2 14.8 -11.0 11.3 -6.6 13.85 3.95 13.5 14.35 13.15 19.6 10.4 18.6 17.25 19.05 19.85 12.25 22.3 7.6 21.0 L4.45 19.5 1.25 21.25" fill="#ea3927" fill-rule="evenodd" stroke="none"/>
      <path d="M10.35 15.35 Q2.9 16.3 1.9 18.8 1.4 20.15 3.85 20.35 L0.95 20.05 -1.7 19.85 Q-3.45 20.1 -1.7 21.4 -9.85 21.7 -10.2 20.05 -9.85 18.95 -10.05 15.5 -10.3 11.85 -10.95 11.25 -9.3 12.25 -5.0 13.0 L0.1 13.5 10.7 12.9 Q17.6 11.8 19.9 10.5 L18.8 16.4 Q17.7 14.4 10.35 15.35" fill="#bc3026" fill-rule="evenodd" stroke="none"/>
      <path d="M7.3 19.65 Q9.95 21.4 8.95 21.3 L7.3 20.9 Q5.5 20.6 6.2 20.1 L7.3 19.65" fill="#bc3026" fill-rule="evenodd" stroke="none"/>
      <path d="M7.05 20.3 L4.35 20.85 Q2.05 20.95 0.95 20.1 L2.5 20.1 6.25 19.9 Q7.75 19.7 7.05 20.3" fill="#612210" fill-rule="evenodd" stroke="none"/>
      <path d="M10.55 19.95 Q-1.35 24.1 -12.05 15.05 -13.35 9.6 -12.25 3.05 -3.55 10.45 4.25 10.0 10.8 9.65 20.3 3.05 21.5 6.2 20.3 14.05 16.5 17.9 10.55 19.95" fill="#000000" fill-rule="evenodd" stroke="none"/>
      <path d="M9.8 19.55 Q5.05 21.95 -1.0 19.95 -1.3 19.15 -1.1 15.5 -0.9 11.8 -0.5 10.2 3.75 11.55 9.0 9.75 9.65 13.25 9.8 19.55" fill="#00bbfb" fill-rule="evenodd" stroke="none"/>
      <path d="M-5.0 17.7 Q-2.4 16.15 -0.55 15.8 -0.25 15.7 -0.05 16.35 L0.05 17.05 -1.85 18.25 -4.65 19.0 Q-4.95 18.8 -5.05 18.25 L-5.0 17.7" fill="#f04997" fill-rule="evenodd" stroke="none"/>
      <path d="M-5.0 17.7 L-5.05 18.25 Q-4.95 18.8 -4.65 19.0 L-1.85 18.25 0.05 17.05 -0.05 16.35 Q-0.25 15.7 -0.55 15.8 -2.4 16.15 -5.0 17.7 Z" fill="none" stroke="#000000" stroke-linecap="round" stroke-linejoin="round" stroke-width="0.25"/>
      <path d="M8.15 16.8 L8.05 16.2 Q8.15 15.65 8.5 15.45 9.55 15.5 11.3 16.2 13.05 16.95 13.2 17.4 13.05 18.85 12.55 18.65 11.45 18.45 8.15 16.8" fill="#f04997" fill-rule="evenodd" stroke="none"/>
      <path d="M8.15 16.8 L8.05 16.2 Q8.15 15.65 8.5 15.45 9.55 15.5 11.3 16.2 13.05 16.95 13.2 17.4 13.05 18.85 12.55 18.65 11.45 18.45 8.15 16.8 Z" fill="none" stroke="#000000" stroke-linecap="round" stroke-linejoin="round" stroke-width="0.25"/>
      <path d="M-1.05 10.75 L-2.65 12.75 -1.9 15.15 -4.3 14.35 -6.45 15.8 -6.35 13.3 -8.45 11.8 -5.95 11.1 -5.1 8.65 -3.65 10.75 -1.05 10.75" fill="#f04997" fill-rule="evenodd" stroke="none"/>
      <path d="M17.2 12.35 L14.8 13.35 14.25 15.95 12.5 14.0 9.9 14.3 11.25 12.0 10.15 9.6 12.7 10.2 14.65 8.4 14.9 11.05 17.2 12.35" fill="#f04997" fill-rule="evenodd" stroke="none"/>
      <path d="M14.5 8.9 L14.65 11.2 16.5 12.3 13.1 12.2 14.5 8.9" fill="#f4abd8" fill-rule="evenodd" stroke="none"/>
      <path d="M-5.05 9.2 L-3.95 11.05 -1.6 11.1 Q-2.75 12.05 -4.75 12.7 L-5.05 9.2" fill="#f4abd8" fill-rule="evenodd" stroke="none"/>
      <path d="M9.3 15.95 L12.8 17.55 12.5 18.35 Q11.3 18.0 10.6 17.55 L9.3 15.95" fill="#f4abd8" fill-rule="evenodd" stroke="none"/>
      <path d="M-3.5 17.35 Q-2.0 16.45 -0.7 16.15 -0.2 16.7 -0.2 17.0 L-1.85 17.9 -3.5 17.35" fill="#f4abd8" fill-rule="evenodd" stroke="none"/>
      <path d="M2.5 10.9 L4.75 10.8 Q6.1 20.55 5.8 21.1 L3.35 21.2 Q3.15 21.15 2.5 10.9" fill="#424242" fill-rule="evenodd" stroke="none"/>
      <path d="M3.15 14.2 L4.7 13.95 5.35 20.35 3.8 20.5 3.15 14.2" fill="#cfcfcf" fill-rule="evenodd" stroke="none"/>
      <path d="M1.95 9.55 Q2.1 9.05 3.45 8.9 4.75 8.8 5.05 9.2 5.35 9.6 5.65 11.4 5.9 13.15 5.75 13.45 5.55 13.75 3.8 14.0 2.0 14.3 1.85 14.0 L1.95 9.55" fill="#424242" fill-rule="evenodd" stroke="none"/>
      <path d="M2.4 10.0 Q2.6 9.65 3.55 9.5 4.55 9.4 4.75 9.75 L5.15 11.4 5.25 12.95 Q2.45 13.65 2.35 13.35 2.05 11.65 2.4 10.0" fill="#cfcfcf" fill-rule="evenodd" stroke="none"/>
      <path d="M4.35 9.9 L4.8 9.85 Q5.65 12.7 5.2 13.0 3.7 14.0 2.5 13.4 L2.5 13.1 4.75 12.7 Q5.0 12.35 4.35 9.9" fill="#ffffff" fill-rule="evenodd" stroke="none"/>
      <path d="M4.5 14.1 Q4.5 13.65 4.7 14.05 L5.35 20.35 3.9 20.5 Q3.5 20.3 3.9 20.3 L5.1 20.1 Q5.35 19.85 4.5 14.1" fill="#ffffff" fill-rule="evenodd" stroke="none"/>
    </g>
  </defs>
</svg>
